assets/icons/qvision/settings_backup_restore.svg

<svg xmlns="http://www.w3.org/2000/svg" height="24" viewBox="0 0 24 24" width="24"><path d="M0 0h24v24H0z" fill="none"/><path d="M14 12c0-1.1-.9-2-2-2s-2 .9-2 2 .9 2 2 2 2-.9 2-2zm-2-9c-4.97 0-9 4.03-9 9H0l4 4 4-4H5c0-3.87 3.13-7 7-7s7 3.13 7 7-3.13 7-7 7c-1.51 0-2.91-.49-4.06-1.3l-1.42 1.44C8.04 20.3 9.94 21 12 21c4.97 0 9-4.03 9-9s-4.03-9-9-9z"/></svg>

<svg width="24" height="24" viewBox="0 0 24 24" fill="none" xmlns="http://www.w3.org/2000/svg">
<g clip-path="url(#clip0_147_4702)">
<path d="M14 12C14 10.9 13.1 10 12 10C10.9 10 10 10.9 10 12C10 13.1 10.9 14 12 14C13.1 14 14 13.1 14 12ZM12 3C7.03 3 3 7.03 3 12H0L4 16L8 12H5C5 8.13 8.13 5 12 5C15.87 5 19 8.13 19 12C19 15.87 15.87 19 12 19C10.49 19 9.09 18.51 7.94 17.7L6.52 19.14C8.04 20.3 9.94 21 12 21C16.97 21 21 16.97 21 12C21 7.03 16.97 3 12 3Z" fill="#323232"/>
</g>
<defs>
<clipPath id="clip0_147_4702">
<rect width="24" height="24" fill="white"/>
</clipPath>
</defs>
</svg>
